icons/construction.svg

<?xml version="1.0" encoding="UTF-8"?>
<svg height="15" viewBox="0 0 15 15" width="15" xmlns="http://www.w3.org/2000/svg" id="construction">
  <g>
    <path d="m13.5 11h-1.8l-3.5-10.499994c-.2-.7-1.2-.7-1.4 0l-3.5 10.499994h-1.8c-.3 0-.5.2-.5.5v1c0 .3.2.5.5.5h12c.3 0 .5-.2.5-.5v-1c0-.3-.2-.5-.5-.5zm-6.5-7.99999h1l.7 2h-2.3zm-1.3 4h3.6l.7 2h-5z"/>
  </g>
</svg>

<?xml version="1.0" encoding="UTF-8"?>
<svg width="15" height="15" viewBox="0 0 15 15" xmlns="http://www.w3.org/2000/svg" id="construction">
  <path d="M13.5 11h-1.8L8.2.5C8-.2 7-.2 6.8.5L3.3 11H1.5c-.3 0-.5.2-.5.5v1c0 .3.2.5.5.5h12c.3 0 .5-.2.5-.5v-1c0-.3-.2-.5-.5-.5ZM7 3h1l.7 2H6.4L7 3ZM5.7 7h3.6l.7 2H5l.7-2Z"/>
</svg>
